X:1
T: After Midnite Hornpipe
C:Gordy Euler
R:Reel
Q: 232
K:D
M:4/4
L:1/8
|:DD FA dA FA|dA FA dA FD|GA Bc dA FD|EA FA G2 A2|
DD FA dA FA|dA FA dA FD|GA Bc dA FD|EF GE D4:|
|:e3d ef ga|fd ad fd af|g2 gf ef ed|c2 d2 e4|
e3d ef ga|fd ad fd af|g2 ge fd cd|ef ge d4:|
